www/assets/icons/camera_roll.svg

<svg xmlns="http://www.w3.org/2000/svg" width="24" height="24" viewBox="0 0 24 24" fill='currentColor'><path d="M14 5.5c0-1.1-.9-2-2-2h-1v-1c0-.55-.45-1-1-1H6c-.55 0-1 .45-1 1v1H4c-1.1 0-2 .9-2 2v15c0 1.1.9 2 2 2h8c1.1 0 2-.9 2-2h8v-15zm-2 13h-2v-2h2zm0-9h-2v-2h2zm4 9h-2v-2h2zm0-9h-2v-2h2zm4 9h-2v-2h2zm0-9h-2v-2h2z"/></svg>

<svg width="24" height="24" viewBox="0 0 24 24" xmlns="http://www.w3.org/2000/svg" fill='currentColor'><path d="M14 5.5C14 4.4 13.1 3.5 12 3.5H11V2.5C11 1.95 10.55 1.5 10 1.5H6C5.45 1.5 5 1.95 5 2.5V3.5H4C2.9 3.5 2 4.4 2 5.5V20.5C2 21.6 2.9 22.5 4 22.5H12C13.1 22.5 14 21.6 14 20.5H22V5.5H14ZM12 18.5H10V16.5H12V18.5ZM12 9.5H10V7.5H12V9.5ZM16 18.5H14V16.5H16V18.5ZM16 9.5H14V7.5H16V9.5ZM20 18.5H18V16.5H20V18.5ZM20 9.5H18V7.5H20V9.5Z"/></svg>
